icons/funnel.svg

<svg xmlns="http://www.w3.org/2000/svg" width="24" height="24" viewBox="0 0 24 24">
  <path d="M11.6,21.8 L13.6,20.3 C13.8518058,20.1111456 14,19.8147573 14,19.5 L14,12.5146179 C14,12.1916668 14.1559657,11.8885959 14.4187618,11.7008844 L20.5812382,7.29911558 C20.8440343,7.11140406 21,6.80833321 21,6.4853821 L21,4 C21,3.44771525 20.5522847,3 20,3 L4,3 C3.44771525,3 3,3.44771525 3,4 L3,6.4853821 C3,6.80833321 3.15596568,7.11140406 3.41876181,7.29911558 L9.58123819,11.7008844 C9.84403432,11.8885959 10,12.1916668 10,12.5146179 L10,21 C10,21.5522847 10.4477153,22 11,22 C11.2163702,22 11.4269038,21.9298221 11.6,21.8 Z"/>
</svg>

<svg xmlns="http://www.w3.org/2000/svg" viewBox="0 0 24 24">
  <path d="m11.6 21.8 2-1.5a1 1 0 0 0 .4-.8v-6.99a1 1 0 0 1 .42-.8l6.16-4.41a1 1 0 0 0 .42-.81V4a1 1 0 0 0-1-1H4a1 1 0 0 0-1 1v2.49a1 1 0 0 0 .42.8l6.16 4.41a1 1 0 0 1 .42.81V21a1 1 0 0 0 1.6.8z"/>
</svg>
